svgs/sharp-regular/person-dress-simple.svg

<svg xmlns="http://www.w3.org/2000/svg" viewBox="0 0 256 512"><!--! Font Awesome Pro 6.6.0 by @fontawesome - https://fontawesome.com License - https://fontawesome.com/license (Commercial License) Copyright 2024 Fonticons, Inc. --><path d="M128 0a64 64 0 1 1 0 128A64 64 0 1 1 128 0zM63.6 336l128.7 0L155.8 208l-55.6 0L63.6 336zM64 160l128 0 50.3 176L256 384l-49.9 0L192 384l0 104 0 24-48 0 0-24 0-104-32 0 0 104 0 24-48 0 0-24 0-104-14.1 0L0 384l13.7-48L64 160z"/></svg>

<svg xmlns="http://www.w3.org/2000/svg" viewBox="0 0 256 512"><!--! Font Awesome Pro 6.4.0 by @fontawesome - https://fontawesome.com License - https://fontawesome.com/license (Commercial License) Copyright 2023 Fonticons, Inc. --><path d="M128 0a64 64 0 1 1 0 128A64 64 0 1 1 128 0zM63.6 336H192.4L155.8 208H100.2L63.6 336zM64 160H192l50.3 176L256 384H206.1 192V488v24H144V488 384H112V488v24H64V488 384H49.9 0l13.7-48L64 160z"/></svg>
